common/svg/build-number-icon.svg

<svg fill="none" height="20" viewBox="0 0 20 20" width="20" xmlns="http://www.w3.org/2000/svg"><path clip-rule="evenodd" d="m4 0c-2.20914 0-4 1.79086-4 4v12c0 .4494.0741222.8816.210809 1.2848l5.224131-5.2241c-.41919-.9264-.54612-1.9585-.36386-2.95879.18226-1.00031.66505-1.92132 1.38402-2.64029.71897-.71898 1.63999-1.20176 2.6403-1.38402 1.0003-.18226 2.0324-.05534 2.9588.36386l-3.13458 3.13454-.00834.00834c-.15275.15583-.2383.36534-.2383.58355 0 .21822.08555.42773.2383.58356l1.33382 1.33385c.1559.1527.3654.2383.5836.2383s.4277-.0856.5835-.2383l3.1429-3.14288c.4192.92635.5461 1.95845.3639 2.95878-.1823 1.0003-.6651 1.9213-1.384 2.6403-.719.719-1.64 1.2017-2.6403 1.384-1.00034.1823-2.03245.0553-2.9588-.3639l-5.22581 5.2259c.40471.1378.83858.2125 1.28991.2125h12c2.2091 0 4-1.7909 4-4v-12c0-2.20914-1.7909-4-4-4z" fill="#000" fill-rule="evenodd"/></svg>

<svg width="20" height="20" viewBox="0 0 20 20" fill="none" xmlns="http://www.w3.org/2000/svg">
<path fill-rule="evenodd" clip-rule="evenodd" d="M4 0C1.79086 0 0 1.79086 0 4V16C0 16.4494 0.0741222 16.8816 0.210809 17.2848L5.43494 12.0607C5.01575 11.1343 4.88882 10.1022 5.07108 9.10191C5.25334 8.1016 5.73613 7.18059 6.4551 6.46162C7.17407 5.74264 8.09509 5.25986 9.0954 5.0776C10.0957 4.89534 11.1278 5.02226 12.0542 5.44146L8.91962 8.576L8.91128 8.58434C8.75853 8.74017 8.67298 8.94968 8.67298 9.16789C8.67298 9.38611 8.75853 9.59562 8.91128 9.75145L10.2451 11.0853C10.401 11.238 10.6105 11.3236 10.8287 11.3236C11.0469 11.3236 11.2564 11.238 11.4122 11.0853L14.5551 7.94242C14.9743 8.86877 15.1012 9.90087 14.919 10.9012C14.7367 11.9015 14.2539 12.8225 13.535 13.5415C12.816 14.2605 11.895 14.7432 10.8947 14.9255C9.89436 15.1078 8.86225 14.9808 7.9359 14.5616L2.71009 19.7875C3.1148 19.9253 3.54867 20 4 20H16C18.2091 20 20 18.2091 20 16V4C20 1.79086 18.2091 0 16 0H4Z" fill="black"/>
</svg>
